dist/img/created.svg

<svg width="185" height="12" viewBox="0 0 185 12" fill="none" xmlns="http://www.w3.org/2000/svg">
<path d="M117.764 4.64833C117.764 4.96833 117.678 5.28833 117.506 5.60833C117.333 5.92833 117.16 6.24833 116.815 6.40833C117.678 6.80833 118.11 7.52833 118.11 8.48833C118.11 9.44833 117.851 10.2483 117.16 10.8083C116.557 11.4483 115.78 11.6883 114.658 11.6883H109.654V1.52832H114.313C115.262 1.52832 116.125 1.84832 116.729 2.40832C117.419 2.96832 117.764 3.76832 117.764 4.64833ZM114.141 3.84832H112.329V5.52833H114.141C114.486 5.52833 114.745 5.36833 114.917 5.12833C115.09 4.88833 115.003 4.56833 114.917 4.32833C114.745 3.92832 114.486 3.84832 114.141 3.84832ZM114.658 7.68833H112.329V9.44833H114.572C114.917 9.44833 115.176 9.28833 115.349 9.04833C115.521 8.80833 115.435 8.40833 115.349 8.16833C115.176 7.76833 115.003 7.68833 114.658 7.68833Z" fill="#9FA2A9"/>
<path d="M134.159 8.08842L136.316 11.2885V11.6085H133.123L131.225 8.56842H129.758V11.6085H126.911V1.52832H131.743C132.433 1.52832 133.037 1.60832 133.641 1.84832C134.245 2.08833 134.59 2.48833 134.935 2.80834C135.194 3.12834 135.539 3.68835 135.625 4.08836C135.712 4.64837 135.798 5.04837 135.712 5.52838C135.625 6.08839 135.453 6.48839 135.28 6.8884C134.935 7.44841 134.59 7.84841 134.159 8.08842ZM131.743 6.40839C132.001 6.40839 132.347 6.32839 132.519 6.16839C132.692 6.00839 132.778 5.84838 132.864 5.52838C132.951 5.28838 132.951 4.96837 132.864 4.72837C132.864 4.48836 132.692 4.32836 132.519 4.08836C132.347 3.92835 132.088 3.84835 131.743 3.84835C131.57 3.84835 131.397 3.84835 131.052 3.84835C130.793 3.84835 130.621 3.84835 130.276 3.84835C129.931 3.84835 129.844 3.84835 129.585 3.84835V6.32839H131.743V6.40839Z" fill="#9FA2A9"/>
<path d="M147.015 4.64833C147.015 4.96833 146.929 5.28833 146.756 5.60833C146.584 5.92833 146.411 6.24833 146.066 6.40833C146.929 6.80833 147.36 7.52833 147.36 8.48833C147.36 9.44833 147.101 10.2483 146.411 10.8083C145.807 11.4483 145.031 11.6883 143.909 11.6883H138.732V1.52832H143.391C144.34 1.52832 145.203 1.84832 145.807 2.40832C146.756 2.96832 147.015 3.76832 147.015 4.64833ZM143.391 3.84832H141.579V5.52833H143.391C143.736 5.52833 143.995 5.36833 144.168 5.12833C144.34 4.88833 144.254 4.56833 144.168 4.32833C144.081 3.92832 143.736 3.84832 143.391 3.84832ZM143.823 7.68833H141.579V9.44833H143.823C144.168 9.44833 144.427 9.28833 144.599 9.04833C144.772 8.80833 144.685 8.40833 144.599 8.16833C144.513 7.76833 144.254 7.68833 143.823 7.68833Z" fill="#9FA2A9"/>
<path d="M157.369 11.6879L156.679 10.4078H152.364L151.674 11.6879H148.999V11.3679L153.917 1.36719H155.125L160.13 11.3679V11.6879H157.369ZM155.729 8.16767L154.521 5.44748L153.313 8.16767H155.729Z" fill="#9FA2A9"/>
<path d="M170.657 11.7683L165.135 6.72828V11.7683H162.202V1.44824H163.237L168.759 6.48828V1.44824H171.693V11.7683H170.657Z" fill="#9FA2A9"/>
<path d="M178.595 1.52832C179.717 1.52832 180.752 1.76829 181.615 2.32824C182.478 2.88818 182.996 3.44812 183.427 4.24803C183.772 5.04795 184.031 5.84786 184.031 6.64778C184.031 7.52769 183.858 8.3276 183.427 9.04753C183.082 9.84744 182.392 10.4074 181.615 10.9673C180.752 11.5273 179.717 11.7672 178.595 11.7672H174.453V1.52832H178.595ZM177.214 3.84807V9.36749H178.509C178.94 9.36749 179.458 9.2875 179.803 9.12752C180.148 8.96753 180.493 8.72756 180.666 8.3276C180.838 8.00764 181.011 7.60768 181.097 7.28771C181.184 6.96774 181.184 6.4878 181.097 6.16783C181.011 5.84786 180.838 5.36791 180.666 5.12794C180.493 4.80797 180.234 4.48801 179.803 4.32802C179.458 4.16804 178.94 4.08805 178.509 4.08805H177.214V3.84807Z" fill="#9FA2A9"/>
<path d="M28.9776 8.24725C28.7187 7.60724 28.5461 6.88724 28.5461 6.16723C28.5461 5.44722 28.7187 4.72722 28.9776 4.08721C29.2364 3.44721 29.6678 2.9672 30.1856 2.5672C30.7033 2.16719 31.221 1.84719 31.825 1.68719C32.429 1.52719 33.1192 1.36719 33.7232 1.36719C34.8449 1.36719 35.8803 1.68719 36.7432 2.2472C37.606 2.8872 38.1237 3.76721 38.2963 4.88722H35.7078C35.5352 4.00721 34.7586 3.60721 33.6369 3.60721C32.9467 3.60721 32.2564 3.84721 31.825 4.32721C31.3935 4.80722 31.1347 5.44722 31.1347 6.16723C31.1347 6.88724 31.3935 7.44724 31.825 7.92725C32.2564 8.40725 32.8604 8.72725 33.6369 8.72725C34.2409 8.72725 34.6724 8.56725 35.1038 8.32725C35.5352 8.08725 35.7078 7.68724 35.7941 7.20724H38.2963C38.2963 8.08725 37.9512 8.72725 37.4335 9.36726C36.9158 9.92726 36.3118 10.3273 35.7078 10.5673C35.0175 10.8073 34.3272 10.8873 33.5507 10.8873C32.8604 10.8873 32.2564 10.8073 31.6524 10.5673C31.0484 10.3273 30.5307 10.0873 30.013 9.68726C29.6678 9.28726 29.3227 8.80725 28.9776 8.24725Z" fill="#9FA2A9"/>
<path d="M41.489 10.7283V11.7683H39.3319V8.7283H40.3673L43.7324 1.44824H44.8541L48.3918 8.7283H49.5135V11.7683H47.3564V10.7283H41.489ZM44.4227 5.36827L43.0421 8.6483H45.8033L44.4227 5.36827Z" fill="#9FA2A9"/>
<path d="M57.1067 1.6084V3.76834H53.4827V5.12831H56.8478V7.28826H53.4827V8.96821H57.2793V11.1282H50.8942V1.6084H57.1067Z" fill="#9FA2A9"/>
<path d="M63.4916 5.52868L60.9031 10.9691H58.4871V10.649L62.9739 1.6084H64.0093L68.4962 10.649V10.9691H66.0802L63.4916 5.52868Z" fill="#9FA2A9"/>
<path d="M77.2111 10.9691L76.6071 9.76898H72.7243L72.1203 10.9691H69.7043V10.649L74.1911 1.6084H75.3128L79.7133 10.649V10.9691H77.2111ZM75.8305 7.84884L74.6225 5.44867L73.5008 7.84884C73.5008 7.84884 75.8305 7.84884 75.8305 7.84884Z" fill="#9FA2A9"/>
<path d="M89.2912 1.6084V10.9691H86.7026V7.2088H83.6827V10.9691H81.0941V1.6084H83.6827V5.04864H86.7026V1.6084H89.2912Z" fill="#9FA2A9"/>
<path d="M100.421 4.16747C100.68 4.80754 100.853 5.52761 100.853 6.32769C100.853 7.12777 100.68 7.76784 100.421 8.4079C100.162 9.04797 99.731 9.52802 99.2133 9.92806C98.6956 10.3281 98.1779 10.6481 97.5739 10.8081C96.9699 11.0482 96.2796 11.1282 95.6756 11.1282C95.0716 11.1282 94.3813 11.0482 93.7774 10.8081C93.1734 10.5681 92.5694 10.3281 92.1379 9.92806C91.6202 9.52802 91.2751 9.04797 90.93 8.4079C90.6711 7.76784 90.4985 7.04776 90.4985 6.24768C90.4985 5.4476 90.6711 4.72753 90.93 4.08746C91.1888 3.4474 91.6202 2.96735 92.1379 2.56731C92.6557 2.16727 93.1734 1.84724 93.7774 1.68722C94.3813 1.4472 95.0716 1.36719 95.6756 1.36719C96.3659 1.36719 96.9699 1.4472 97.5739 1.68722C98.1779 1.92724 98.7819 2.16727 99.2133 2.56731C99.731 3.04736 100.162 3.52741 100.421 4.16747ZM93.2596 6.16767C93.2596 6.72773 93.3459 7.20778 93.6048 7.60782C93.8636 8.00786 94.2088 8.32789 94.5539 8.48791C94.899 8.64793 95.3305 8.72793 95.7619 8.72793C96.1933 8.72793 96.6247 8.64793 96.9699 8.48791C97.315 8.32789 97.6602 8.00786 97.919 7.60782C98.1779 7.20778 98.2641 6.72773 98.2641 6.16767C98.2641 5.60762 98.0916 5.20758 97.8327 4.80754C97.5739 4.4075 97.2287 4.08746 96.8836 3.92745C96.5385 3.76743 96.107 3.68742 95.7619 3.68742C95.4168 3.68742 94.899 3.76743 94.5539 3.92745C94.2088 4.08746 93.8636 4.4075 93.6048 4.80754C93.3459 5.28759 93.2596 5.76763 93.2596 6.16767Z" fill="#9FA2A9"/>
<g clip-path="url(#clip0_140_377)">
<path d="M10.1348 5.26715L0.0722656 0V11.9204L10.1348 6.37603V5.26715Z" fill="#9FA2A9"/>
<path d="M10.1346 5.26715L19.9176 0V11.9204L9.8551 6.37603L10.1346 5.26715Z" fill="#9FA2A9"/>
</g>
<defs>
<clipPath id="clip0_140_377">
<rect width="19.8455" height="11.9204" fill="white" transform="translate(0.0722656)"/>
</clipPath>
</defs>
</svg>

<svg width="185" height="12" fill="none" xmlns="http://www.w3.org/2000/svg"><path d="M117.764 4.648c0 .32-.086.64-.258.96-.173.32-.346.64-.691.8.863.4 1.295 1.12 1.295 2.08s-.259 1.76-.95 2.32c-.603.64-1.38.88-2.502.88h-5.004V1.528h4.659c.949 0 1.812.32 2.416.88.69.56 1.035 1.36 1.035 2.24Zm-3.623-.8h-1.812v1.68h1.812c.345 0 .604-.16.776-.4.173-.24.086-.56 0-.8-.172-.4-.431-.48-.776-.48Zm.517 3.84h-2.329v1.76h2.243c.345 0 .604-.16.777-.4.172-.24.086-.64 0-.88-.173-.4-.346-.48-.691-.48ZM134.159 8.088l2.157 3.2v.32h-3.193l-1.898-3.04h-1.467v3.04h-2.847V1.528h4.832c.69 0 1.294.08 1.898.32.604.24.949.64 1.294.96.259.32.604.88.69 1.28.087.56.173.96.087 1.44-.087.56-.259.96-.432 1.36-.345.56-.69.96-1.121 1.2Zm-2.416-1.68c.258 0 .604-.08.776-.24.173-.16.259-.32.345-.64.087-.24.087-.56 0-.8 0-.24-.172-.4-.345-.64-.172-.16-.431-.24-.776-.24h-2.158v2.48h2.158v.08ZM147.015 4.648c0 .32-.086.64-.259.96-.172.32-.345.64-.69.8.863.4 1.294 1.12 1.294 2.08s-.259 1.76-.949 2.32c-.604.64-1.38.88-2.502.88h-5.177V1.528h4.659c.949 0 1.812.32 2.416.88.949.56 1.208 1.36 1.208 2.24Zm-3.624-.8h-1.812v1.68h1.812c.345 0 .604-.16.777-.4.172-.24.086-.56 0-.8-.087-.4-.432-.48-.777-.48Zm.432 3.84h-2.244v1.76h2.244c.345 0 .604-.16.776-.4.173-.24.086-.64 0-.88-.086-.4-.345-.48-.776-.48ZM157.369 11.688l-.69-1.28h-4.315l-.69 1.28h-2.675v-.32l4.918-10h1.208l5.005 10v.32h-2.761Zm-1.64-3.52-1.208-2.72-1.208 2.72h2.416ZM170.657 11.768l-5.522-5.04v5.04h-2.933V1.448h1.035l5.522 5.04v-5.04h2.934v10.32h-1.036ZM178.595 1.528c1.122 0 2.157.24 3.02.8s1.381 1.12 1.812 1.92c.345.8.604 1.6.604 2.4 0 .88-.173 1.68-.604 2.4-.345.8-1.035 1.36-1.812 1.92-.863.56-1.898.8-3.02.8h-4.142V1.527h4.142Zm-1.381 2.32v5.52h1.295c.431 0 .949-.08 1.294-.24.345-.16.69-.4.863-.8.172-.32.345-.72.431-1.04.087-.32.087-.8 0-1.12-.086-.32-.259-.8-.431-1.04-.173-.32-.432-.64-.863-.8-.345-.16-.863-.24-1.294-.24h-1.295v-.24ZM28.978 8.247c-.26-.64-.432-1.36-.432-2.08s.173-1.44.432-2.08c.258-.64.69-1.12 1.208-1.52.517-.4 1.035-.72 1.639-.88.604-.16 1.294-.32 1.898-.32 1.122 0 2.157.32 3.02.88.863.64 1.38 1.52 1.553 2.64h-2.588c-.173-.88-.95-1.28-2.071-1.28-.69 0-1.38.24-1.812.72-.431.48-.69 1.12-.69 1.84s.258 1.28.69 1.76c.431.48 1.035.8 1.812.8.604 0 1.035-.16 1.467-.4.431-.24.604-.64.69-1.12h2.502c0 .88-.345 1.52-.862 2.16-.518.56-1.122.96-1.726 1.2-.69.24-1.38.32-2.157.32-.69 0-1.295-.08-1.899-.32-.604-.24-1.121-.48-1.639-.88a11.2 11.2 0 0 1-1.035-1.44ZM41.489 10.728v1.04h-2.157v-3.04h1.035l3.365-7.28h1.122l3.538 7.28h1.121v3.04h-2.157v-1.04H41.49Zm2.934-5.36-1.38 3.28h2.76l-1.38-3.28ZM57.107 1.608v2.16h-3.624v1.36h3.365v2.16h-3.365v1.68h3.796v2.16h-6.385v-9.52h6.213ZM63.492 5.529l-2.589 5.44h-2.416v-.32l4.487-9.04h1.035l4.487 9.04v.32H66.08l-2.588-5.44ZM77.211 10.97l-.604-1.201h-3.883l-.604 1.2h-2.416v-.32l4.487-9.04h1.122l4.4 9.04v.32h-2.502Zm-1.38-3.121-1.209-2.4-1.121 2.4h2.33ZM89.291 1.608v9.361h-2.588V7.21h-3.02v3.76h-2.589V1.61h2.589v3.44h3.02v-3.44h2.588ZM100.421 4.167c.259.64.432 1.36.432 2.16s-.173 1.44-.432 2.08c-.259.641-.69 1.121-1.208 1.521-.517.4-1.035.72-1.64.88-.603.24-1.293.32-1.897.32-.604 0-1.295-.08-1.899-.32-.604-.24-1.208-.48-1.64-.88-.517-.4-.862-.88-1.207-1.52a5.717 5.717 0 0 1-.431-2.16c0-.8.172-1.52.431-2.16.259-.64.69-1.12 1.208-1.52.518-.4 1.035-.72 1.64-.88.603-.24 1.294-.32 1.898-.32.69 0 1.294.08 1.898.32.604.24 1.208.48 1.64.88.517.48.948.96 1.207 1.6Zm-7.161 2c0 .56.086 1.04.345 1.44.259.4.604.72.949.88.345.16.776.24 1.208.24.431 0 .863-.08 1.208-.24.345-.16.69-.48.949-.88s.345-.88.345-1.44c0-.56-.172-.96-.431-1.36-.26-.4-.604-.72-.95-.88a2.831 2.831 0 0 0-1.121-.24c-.345 0-.863.08-1.208.24-.345.16-.69.48-.95.88-.258.48-.344.96-.344 1.36Z" fill="#9FA2A9"/><g clip-path="url(#a)" fill="#9FA2A9"><path d="M10.135 5.267.072 0v11.92l10.063-5.544V5.267Z"/><path d="M10.135 5.267 19.918 0v11.92L9.855 6.376l.28-1.109Z"/></g><defs><clipPath id="a"><path fill="#fff" transform="translate(.072)" d="M0 0h19.846v11.92H0z"/></clipPath></defs></svg>
